X:10
T:Sighs are fragile deep breaths are antifragile
M:4/4
L:1/8
Q:1/4=68
K:Am
|: A,2 EA cEAc | F,2 CF ACFA | D,2 A,D FADF | E,2 B,E GBEB :|
| a4 g4 | f4 e4 | d4 c4 | B4 A4 |
